packages/vibrant-icons/assets/icons/TextH2/Thin.svg

<svg width="24" height="24" viewBox="0 0 24 24" fill="none" xmlns="http://www.w3.org/2000/svg">
<path d="M21.4296 17.1934C21.4277 16.5788 20.789 16.1091 20.1878 16.1188C19.8846 16.1139 19.5843 16.2366 19.3713 16.4524C19.117 16.7099 19.0024 17.1179 19.0526 17.4724H17.4538C17.4539 17.2279 17.5163 16.781 17.5914 16.581C17.7043 16.2805 17.8848 15.9651 18.1275 15.7256C18.356 15.5001 18.6285 15.2781 18.9298 15.1675C19.3415 15.0001 19.7938 14.95 20.2351 14.95C20.9643 14.95 21.6391 15.1003 22.1711 15.4955C22.7888 15.9542 23.0623 16.4546 23.0623 17.0706C23.0623 17.4597 22.9637 17.8685 22.8311 18.0928C22.487 18.6751 22.1114 19.1072 21.6633 19.5828C21.0672 20.2156 20.4167 20.8035 19.9197 21.2603H23.1762V22.55H17.613V21.501C17.613 21.501 18.7879 20.5345 19.5076 19.836C20.0184 19.3404 20.3022 19.0469 20.7153 18.6024C21.0333 18.264 21.4306 17.6699 21.4296 17.1934Z" fill="#0C0C0C"/>
<path d="M13.549 12.9249V21H15.4495V3H13.5495V11.0254H3.9V3H2V21H3.9V12.9249H13.549Z" fill="#0C0C0C"/>
</svg>

<svg xmlns="http://www.w3.org/2000/svg" width="24" height="24" fill="none"><path fill="#0C0C0C" d="M21.43 17.193c-.002-.614-.641-1.084-1.242-1.074a1.13 1.13 0 0 0-.817.333c-.254.258-.369.666-.318 1.02h-1.6c0-.244.063-.691.138-.891.113-.3.294-.616.537-.855.228-.226.5-.448.802-.559.412-.167.864-.217 1.305-.217.73 0 1.404.15 1.936.546.618.458.891.959.891 1.575 0 .389-.098.797-.23 1.022-.345.582-.72 1.014-1.169 1.49-.596.633-1.246 1.22-1.743 1.677h3.256v1.29h-5.563v-1.049s1.175-.966 1.895-1.665c.51-.496.794-.79 1.207-1.234.318-.338.716-.932.715-1.409m-7.881-4.268V21h1.9V3h-1.9v8.025H3.9V3H2v18h1.9v-8.075z"/></svg>
